public/images/icons/icn_vote.svg

<svg xmlns="http://www.w3.org/2000/svg" width="18" height="18" viewBox="0 0 18 18"><g fill="none" fill-rule="evenodd"><polygon points="0 0 18 0 18 18 0 18"/><path fill="#26BFBF" fill-rule="nonzero" d="M13.5,9.75 L12.99,9.75 L11.49,11.25 L12.9225,11.25 L14.25,12.75 L3.75,12.75 L5.085,11.25 L6.6225,11.25 L5.1225,9.75 L4.5,9.75 L2.25,12 L2.25,15 C2.25,15.825 2.9175,16.5 3.7425,16.5 L14.25,16.5 C15.075,16.5 15.75,15.8325 15.75,15 L15.75,12 L13.5,9.75 Z M12.75,5.9625 L9.0375,9.675 L6.3825,7.02 L10.095,3.3075 L12.75,5.9625 Z M9.57,1.7175 L4.7925,6.495 C4.5,6.7875 4.5,7.26 4.7925,7.5525 L8.505,11.265 C8.7975,11.5575 9.27,11.5575 9.5625,11.265 L14.3325,6.495 C14.625,6.2025 14.625,5.73 14.3325,5.4375 L10.62,1.725 C10.335,1.425 9.8625,1.425 9.57,1.7175 Z"/></g></svg>

<svg viewBox="0 0 18 18"><g fill="none" fill-rule="evenodd"><path d="M0 0h18v18H0z"/><path fill="#26BFBF" fill-rule="nonzero" d="M13.5 9.75h-.51l-1.5 1.5h1.432l1.328 1.5H3.75l1.335-1.5h1.537l-1.5-1.5H4.5L2.25 12v3c0 .825.667 1.5 1.493 1.5H14.25a1.5 1.5 0 001.5-1.5v-3L13.5 9.75zm-.75-3.787L9.037 9.675 6.383 7.02l3.713-3.712 2.655 2.655zM9.57 1.718L4.793 6.495a.747.747 0 000 1.058l3.712 3.712a.747.747 0 001.057 0l4.77-4.77a.747.747 0 000-1.058L10.62 1.725a.731.731 0 00-1.05-.008z"/></g></svg>
